!!!!SEGMENT: Wil2033-Peccavi_supra_numerum
!!!id: Wil2033
!!!AGN: Motet
!!!voices: 5
!!!COM: Adrian Willaert
!!!OTL: Peccavi supra numerum
**kern	**kern	**kern	**kern	**kern
*part5	*part4	*part3	*part2	*part1
*staff5	*staff4	*staff3	*staff2	*staff1
*I"Bassus	*I"Tenor II	*I"Tenor I	*I"Altus	*I"Superius
*I'B	*I'T. II	*I'T. I	*I'A	*I'S
*clefF4	*clefGv2	*clefGv2	*clefGv2	*clefG2
*k[b-]	*k[b-]	*k[b-]	*k[b-]	*k[b-]
*F:	*F:	*F:	*F:	*F:
*M2/1	*M2/1	*M2/1	*M2/1	*M2/1
*met(C|)	*met(C|)	*met(C|)	*met(C|)	*met(C|)
=1	=1	=1	=1	=1
!!section: Prima pars: Peccavi supra numerum
!!!OMD: Prima pars: Peccavi supra numerum
0r	1A	0r	1r	0r
.	[1B-y	.	1d	.
=2	=2	=2	=2	=2
1r	1B-]	0r	0f	0r
1D	[1A	.	.	.
=3	=3	=3	=3	=3
0F	1A]	0r	0c	0r
.	1F	.	.	.
=4	=4	=4	=4	=4
1E	1G	0r	0r	0r
1C	[1A	.	.	.
=5	=5	=5	=5	=5
1D	2A]	0r	0r	0r
.	2B-y	.	.	.
1E	2c	.	.	.
.	[2c	.	.	.
=6	=6	=6	=6	=6
1F	2c]	0r	0r	1a
.	1d	.	.	.
[1G	.	.	.	[1b-y
.	2d	.	.	.
=7	=7	=7	=7	=7
2G]	1B-y	0r	1d	1b-]
2G	.	.	.	.
2.F	1c	.	[1f	[1a
4E	.	.	.	.
=8	=8	=8	=8	=8
1D	1r	0A	1f]	0a_
[1AA	1E	.	1e	.
=9	=9	=9	=9	=9
1AA]	0F	0A	1c	1a]
1D	.	.	1d	1f
=10	=10	=10	=10	=10
1C	1E	0c	1.e	1g
1AA	1C	.	.	[1a
.	.	.	2e	.
=11	=11	=11	=11	=11
1r	1D	0A	1f	2a]
.	.	.	.	2b-y
1AA	[1E	.	1e	[1cc
=12	=12	=12	=12	=12
0C	2E]	0G	2e	2cc]
.	2F	.	2c	2cc
.	2G	.	1e	2cc
.	2E	.	.	2cc
=13	=13	=13	=13	=13
0GG	2G	0B-y	0d	2.b-y
.	2G	.	.	.
.	.	.	.	4a
.	1G	.	.	1g
=14	=14	=14	=14	=14
1r	0D	0A	1r	[0f
[1D	.	.	[1d	.
=15	=15	=15	=15	=15
1D]	0A	0r	1d]	1f]
1F	.	.	1c	[1a
=16	=16	=16	=16	=16
1F	0d	0r	1A	1a]
1G	.	.	1B-y	1g
=17	=17	=17	=17	=17
1.A	1c	0r	1.c	1e
.	1A	.	.	1f
2A	.	.	2c	.
=18	=18	=18	=18	=18
1G	1B-y	0r	1d	1.g
1r	[1c	.	2r	.
.	.	.	2e	2g
=19	=19	=19	=19	=19
1r	2c]	0r	2e	1.a
.	2c	.	2e	.
1D	1d	.	1f	.
.	.	.	.	4e
.	.	.	.	4f
=20	=20	=20	=20	=20
1C	0r	0r	2.e	2g
.	.	.	.	2c
.	.	.	4d	.
1AA	.	.	2e	2c
.	.	.	[2f	2c
=21	=21	=21	=21	=21
1BB-y	1r	0r	2f]	1d
.	.	.	4e	.
.	.	.	4d	.
[1C	[1G	.	1e	2.c
.	.	.	.	4d
=22	=22	=22	=22	=22
2C]	1G]	0r	1c	1e
2C	.	.	.	.
1D	1F	.	2r	[1d
.	.	.	2A	.
=23	=23	=23	=23	=23
1GG	1D	0G	2B-y	1d]
.	.	.	2B-y	.
2C	1E	.	1c	1r
2C	.	.	.	.
=24	=24	=24	=24	=24
1BB-y	1F	0B-y	1.d	2r
.	.	.	.	2f
1GG	1G	.	.	2b-y
.	.	.	4c	2b-y
.	.	.	4B-y	.
=25	=25	=25	=25	=25
2r	0A	0F	2c	1.a
1D	.	.	2d	.
.	.	.	2f	.
2D	.	.	2f	4g
.	.	.	.	4f
=26	=26	=26	=26	=26
1C	0r	0c	2.e	1g
.	.	.	4d	.
1AA	.	.	1e	1a
=27	=27	=27	=27	=27
1.BB-y	2r	0B-y	0d	1f
.	2D	.	.	.
.	2F	.	.	2r
2BB-y	2F	.	.	2f
=28	=28	=28	=28	=28
1C	1E	0G	1r	2cc
.	.	.	.	2cc
1GG	2D	.	1d	1b-y
.	2G	.	.	.
=29	=29	=29	=29	=29
2C	2E	0G	2e	1g
2C	2C	.	2e	.
1BB-y	1D	.	1d	1r
=30	=30	=30	=30	=30
0AA	1E	0A	1c#X	2r
.	.	.	.	2e
.	2r	.	2r	2e
.	2c	.	2A	2e
=31	=31	=31	=31	=31
2qqr	.	2qqr	.	.
0r	2c	0r	2F	1a
.	2c	.	2F	.
.	1d	.	1B-y	1f
=32	=32	=32	=32	=32
1F	2c	0r	2A	2r
.	1A	.	2c	2a
2D	.	.	2F	2a
2D	[2d	.	[2f	2a
=33	=33	=33	=33	=33
1G	2d]	0r	2f]	1b-y
.	4c	.	2e	.
.	4B-y	.	.	.
2F	2c	.	[1f	2a
2BB-y	[2d	.	.	2f
=34	=34	=34	=34	=34
1F	2d]	0r	1f]	1a
.	2c	.	.	.
1C	2c	.	1e	2g
.	2c	.	.	[2cc
=35	=35	=35	=35	=35
2.G	1d	0r	2r	2cc]
.	.	.	1g	2b-y
4F	.	.	.	.
2E	2c	.	.	2g
2F	2A	.	2f	2a
=36	=36	=36	=36	=36
1C	1c	0r	2e	2.g
.	.	.	2e	.
.	.	.	.	4a
2r	[1G	.	2d	2b-y
2C	.	.	[2e	[2g
=37	=37	=37	=37	=37
2C	1G]	0r	4e]	2g]
.	.	.	4d	.
2C	.	.	1c	4f
.	.	.	.	4e
1D	2r	.	.	1f
.	2F	.	2BnXi	.
=38	=38	=38	=38	=38
1C	2G	0e	[0c	2e
.	2G	.	.	1cc
1AA	1A	.	.	.
.	.	.	.	2cc
=39	=39	=39	=39	=39
0C	[0G	0e	0c]	2cc
.	.	.	.	2cc
.	.	.	.	2g
.	.	.	.	[2cc
=40	=40	=40	=40	=40
1GG	1G]	0g	1d	2cc]
.	.	.	.	2bnXi
[1C	1E	.	2r	1cc
.	.	.	[2c	.
=41	=41	=41	=41	=41
2C]	1G	0e	2c]	2r
2C	.	.	2c	2.cc
2C	2C	.	2G	.
.	.	.	.	4b-y
2C	[2G	.	2c	[2g
=42	=42	=42	=42	=42
0GG	2G]	0d	2B-y	4g]
.	.	.	.	4a
.	2G	.	4G	1b-y
.	.	.	4A	.
.	2D	.	4B-y	.
.	.	.	4c	.
.	2G	.	[2d	4a
.	.	.	.	4g
=43	=43	=43	=43	=43
0D	2F	0f	2d]	1a
.	4D	.	4c	.
.	4E	.	4B-y	.
.	4F	.	2.A	2r
.	4G	.	.	.
.	[2A	.	.	2d
.	.	.	4BnXi	.
=44	=44	=44	=44	=44
0AA	2A]	0e	1c#X	2.a
.	4G	.	.	.
.	4F	.	.	4a
.	1E	.	2r	2a
.	.	.	2c#i	2a
=45	=45	=45	=45	=45
0C	1r	0r	2.e	1g
.	.	.	4e	.
.	1G	.	2e	2r
.	.	.	2e	2g
=46	=46	=46	=46	=46
1r	2.B-y	0r	1d	2g
.	.	.	.	2f
.	4B-y	.	.	.
1GG	2B-y	.	2r	1g
.	2B-y	.	2d	.
=47	=47	=47	=47	=47
2.D	1A	0r	2d	1a
.	.	.	2d	.
4D	.	.	.	.
2D	2r	.	2.A	1f
2D	2A	.	.	.
.	.	.	4B-y	.
=48	=48	=48	=48	=48
1C	2A	0r	1c	0e
.	2G	.	.	.
2r	2.A	.	2.c	.
2C	.	.	.	.
.	8GL	.	8B-yL	.
.	8FJ	.	8AJ	.
=49	=49	=49	=49	=49
2C	2E	0r	2G	1r
2BB-y	1F	.	1d	.
1C	.	.	.	1g
.	2E	.	2c	.
=50	=50	=50	=50	=50
1D	1F	0r	2B-y	2.dd
.	.	.	1A	.
.	.	.	.	4dd
1BB-y	1D	.	.	2dd
.	.	.	2G	2dd
=51	=51	=51	=51	=51
0AA	1E	0r	1A	1cc
.	1E	.	1c	2r
.	.	.	.	2cc
=52	=52	=52	=52	=52
1r	1.G	0r	2d	2cc
.	.	.	2d	2b-y
1C	.	.	1e	1cc
.	2A	.	.	.
=53	=53	=53	=53	=53
2.G	1B-y	0d	1d	1dd
4G	.	.	.	.
2G	1B-y	.	1G	1b-y
2G	.	.	.	.
=54	=54	=54	=54	=54
1F	1c	0f	1A	1a
2r	1A	.	1F	2.cc
2F	.	.	.	.
.	.	.	.	4b-y
=55	=55	=55	=55	=55
2F	2F	0c	0r	2a
2E	2G	.	.	2.g
1F	1A	.	.	.
.	.	.	.	4f
.	.	.	.	2f
=56	=56	=56	=56	=56
1G	1B-y	0g	0r	2e
.	.	.	.	1d
1E	1G	.	.	.
.	.	.	.	2c#i
=57	=57	=57	=57	=57
0D	1A	0f	1r	1d
.	1A	.	2r	1a
.	.	.	2d	.
=58	=58	=58	=58	=58
2qqr	.	.	.	.
0r	2.B-y	0d	2d	2f
.	.	.	2B-y	2g
.	8AL	.	.	.
.	8GJ	.	.	.
.	2F	.	2f	2a
.	2G	.	4B-y	[2b-y
.	.	.	4c	.
=59	=59	=59	=59	=59
2qqr	.	.	.	.
0r	2G	0d	4d	4b-]
.	.	.	4e	4a
.	2F	.	1f	1a
.	1B-y	.	.	.
.	.	.	4e	2g
.	.	.	4d	.
=60	=60	=60	=60	=60
1r	0A	0e	2c	2a
.	.	.	1d	1a
1A	.	.	.	.
.	.	.	2c#i	2a
=61	=61	=61	=61	=61
2G	0r	0r	1d	1b-y
2G	.	.	.	.
2F	.	.	2r	2a
2D	.	.	[2d	2f
=62	=62	=62	=62	=62
1E	0r	0r	2d]	1g
.	.	.	2c#i	.
2D	.	.	[1d	2f
[2B-y	.	.	.	2f
=63	=63	=63	=63	=63
4B-]	1.G	0r	0d_	2g
4A	.	.	.	.
1G	.	.	.	1b-y
2F	2A	.	.	[2a
=64	=64	=64	=64	=64
1G	1B-y	0r	1d]	2a]
.	.	.	.	2g
1D	2A	.	1r	1a
.	2F	.	.	.
=65	=65	=65	=65	=65
1r	1G	0r	1.d	1b-y
1D	2F	.	.	1a
.	2F	.	2d	.
=66	=66	=66	=66	=66
2D	2A	0r	1f	0r
2D	2.B-y	.	.	.
2C	.	.	2e	.
.	4A	.	.	.
2AA	[2A	.	2c	.
=67	=67	=67	=67	=67
1BB-y	2A]	0r	1d	0r
.	2G	.	.	.
2AA	1A	.	2c	.
[2F	.	.	2c	.
=68	=68	=68	=68	=68
4F]	1.D	0A	2d	1r
4E	.	.	.	.
1D	.	.	2.f	.
.	.	.	.	2r
.	.	.	4e	.
2C	2E	.	[2e	2a
=69	=69	=69	=69	=69
1D	1F	0A	2e]	2a
.	.	.	2d	2a
2AA	1E	.	[1e	2.cc
2AA	.	.	.	.
.	.	.	.	4b-y
=70	=70	=70	=70	=70
2AA	1r	0c	0e_	4a
.	.	.	.	4g
2AA	.	.	.	2a
1C	1E	.	.	2g
.	.	.	.	[2a
=71	=71	=71	=71	=71
2C	2E	0A	1e]	4a]
.	.	.	.	4g
2C	2E	.	.	1g
1D	2F	.	2r	.
.	[2D	.	2A	2f#i
=72	=72	=72	=72	=72
1GG	2D]	0G	2BnX	1g
.	2D	.	2Bni	.
1C	1E	.	1c	2r
.	.	.	.	2e
=73	=73	=73	=73	=73
1BB-y	1D	0B-y	1d	1f
1GG	1G	.	2r	1g
.	.	.	2d	.
=74	=74	=74	=74	=74
2.D	1.F	[0Al	2d	1a
.	.	.	2d	.
4C	.	.	.	.
1D	.	.	1f	2.a
.	2D	.	.	.
.	.	.	.	4b-y
=75	=75	=75	=75	=75
2AA	2E	0A_	2e	2cc
2D	2F	.	2d	2a
1D	2D	.	1f	1dd
.	[2A	.	.	.
=76	=76	=76	=76	=76
[0AAl	2A]	0A_	[0el	[0cc#Xl
.	4G	.	.	.
.	4F	.	.	.
.	1E	.	.	.
=77	=77	=77	=77	=77
0AA]	0El	0A]	0e]	0cc#]
=78||	=78||	=78||	=78||	=78||
*M2/1	*M2/1	*M2/1	*M2/1	*M2/1
*met(C|)	*met(C|)	*met(C|)	*met(C|)	*met(C|)
!!section: Secunda pars: Quoniam iniquitatem
!!!OMD: Secunda pars: Quoniam iniquitatem
1.D	2r	0r	1.f	0r
.	1.A	.	.	.
2C	.	.	2e	.
=79	=79	=79	=79	=79
1C	2G	0r	2e	0r
.	1G	.	2r	.
2r	.	.	1r	.
2C	2r	.	.	.
=80	=80	=80	=80	=80
2D	2r	0r	0r	0r
2E	2G	.	.	.
2F	2A	.	.	.
2C	2c	.	.	.
=81	=81	=81	=81	=81
1E-X	2B-y	0r	0r	0r
.	2G	.	.	.
1D	1B-y	.	.	.
=82	=82	=82	=82	=82
1C	2A	0r	0r	0r
.	1G	.	.	.
2C	.	.	.	.
2C	2c	.	.	.
=83	=83	=83	=83	=83
1D	2B-y	0r	1r	0r
.	1A	.	.	.
1BB-y	.	.	[1d	.
.	2G	.	.	.
=84	=84	=84	=84	=84
0F	1.A	0r	2d]	1r
.	.	.	2c	.
.	.	.	[1c	[1a
.	4G	.	.	.
.	4F	.	.	.
=85	=85	=85	=85	=85
1C	0E	0e	1c]	2a]
.	.	.	.	2g
2C	.	.	1r	1g
2C	.	.	.	.
=86	=86	=86	=86	=86
2.C	0r	0e	1c	2r
.	.	.	.	2g
4BB-y	.	.	.	.
1AA	.	.	2c	2a
.	.	.	2c	2cc
=87	=87	=87	=87	=87
0GG	2r	0g	2e-X	2b-y
.	2.G	.	2e-i	2g
.	.	.	1d	1b-y
.	4F	.	.	.
.	2D	.	.	.
=88	=88	=88	=88	=88
0C	2E	0e	1c	2a
.	4C	.	.	1g
.	4D	.	.	.
.	4E	.	1c	.
.	4F	.	.	.
.	[2G	.	.	2cc
=89	=89	=89	=89	=89
1r	2G]	0d	2d	2b-y
.	2F	.	2d	1a
1G	2G	.	1B-y	.
.	[2d	.	.	2g
=90	=90	=90	=90	=90
2F	4d]	0f	1.A	1a
.	4c	.	.	.
2F	1c	.	.	.
1D	.	.	.	1r
.	2BnXi	.	4G	.
.	.	.	4F	.
=91	=91	=91	=91	=91
0C	1c	0e	0G	0r
.	1r	.	.	.
=92	=92	=92	=92	=92
1.G	1.B-y	0r	1r	0r
.	.	.	[1d	.
2F	2A	.	.	.
=93	=93	=93	=93	=93
1.F	1.A	0r	2d]	0r
.	.	.	2c	.
.	.	.	1c	.
2E	2G	.	.	.
=94	=94	=94	=94	=94
2F	2A	0r	2r	0r
2A	2c	.	2c	.
2G	2B-y	.	2d	.
2F	2A	.	2f	.
=95	=95	=95	=95	=95
1.A	1.c	0r	2e	0r
.	.	.	2c	.
.	.	.	1e	.
2G	2B-y	.	.	.
=96	=96	=96	=96	=96
1.F	2.A	0r	2d	0r
.	.	.	1c	.
.	4G	.	.	.
.	2A	.	.	.
4E	2B-y	.	2f	.
4D	.	.	.	.
=97	=97	=97	=97	=97
2C	2c	0r	2e	2r
2D	1B-y	.	1d	2f
2E	.	.	.	2g
2F	2A	.	2c	2a
=98	=98	=98	=98	=98
2BB-y	2F	0r	1d	2b-y
2.B-y	2.G	.	.	2g
.	.	.	2.d	1b-y
4A	4A	.	.	.
2G	2B-y	.	.	.
.	.	.	4e	.
=99	=99	=99	=99	=99
2F	4c	0r	2f	2a
.	4A	.	.	.
2C	2.c	.	1e	1g
1C	.	.	.	.
.	4B-y	.	.	.
.	4A	.	2e	2cc
.	4G	.	.	.
=100	=100	=100	=100	=100
1D	1F	0d	2d	2b-y
.	.	.	2A	1a
1GG	1G	.	1B-y	.
.	.	.	.	2g
=101	=101	=101	=101	=101
1r	2.F	0f	1c	[0a
.	4G	.	.	.
1F	1A	.	2r	.
.	.	.	[2c	.
=102	=102	=102	=102	=102
1F	2r	0c	2c]	0a]
.	2A	.	1f	.
1A	2F	.	.	.
.	2c	.	[2e	.
=103	=103	=103	=103	=103
2.G	1B-y	0g	2e]	0r
.	.	.	1d	.
4F	.	.	.	.
1E	1G	.	.	.
.	.	.	2c	.
=104	=104	=104	=104	=104
2.D	1A	0f	1d	2r
.	.	.	.	1a
4E	.	.	.	.
1F	1A	.	1c	.
.	.	.	.	2a
=105	=105	=105	=105	=105
1BB-y	2.B-y	0d	2r	2.f
.	.	.	2f	.
.	8AL	.	.	4g
.	8GJ	.	.	.
1r	2F	.	2f	2a
.	[2G	.	4B-y	[2b-y
.	.	.	4c	.
=106	=106	=106	=106	=106
2qqr	.	.	.	.
0r	2G]	0d	4d	4b-]
.	.	.	4e	4a
.	2F	.	2.f	1a
.	1B-y	.	.	.
.	.	.	4e	.
.	.	.	2d	2g
=107	=107	=107	=107	=107
1AA	1A	0e	2c	1a
.	.	.	1d	.
1AA	2r	.	.	1a
.	[2A	.	2c#i	.
=108	=108	=108	=108	=108
1.D	2A]	0r	1d	2.f
.	2A	.	.	.
.	.	.	.	4g
.	2.F	.	1A	2a
4C	.	.	.	2d
4BB-y	4G	.	.	.
=109	=109	=109	=109	=109
2AA	2A	0r	1r	2c
2GG	2.B-y	.	.	2.d
2.D	.	.	2r	.
.	4A	.	.	4e
.	[2A	.	[2d	[2f
4C	.	.	.	.
=110	=110	=110	=110	=110
1BB-y	2A]	0r	2d]	2f]
.	2G	.	2d	4e
.	.	.	.	4d
2.AA	2.A	.	2.c	2f
.	.	.	.	2e
4BB-y	8GL	.	4d	.
.	8FJ	.	.	.
=111	=111	=111	=111	=111
2C	2E	1r	2e	2.a
2D	2D	.	1f	.
.	.	.	.	4b-y
1AA	1E	1A	.	1cc
.	.	.	[2e	.
=112	=112	=112	=112	=112
1D	1F	1A	2e]	2r
.	.	.	2d	1a
1C	1E	1c	1e	.
.	.	.	.	[2g
=113	=113	=113	=113	=113
2.D	2r	1A	0r	2g]
.	1D	.	.	2f
4C	.	.	.	.
2BB-y	.	1G	.	2g
2C	2E	.	.	[2e
=114	=114	=114	=114	=114
1D	1F	1B-y	1r	4e]
.	.	.	.	4d
.	.	.	.	1d
1AA	1E	1A	2r	.
.	.	.	2A	2c#i
=115	=115	=115	=115	=115
2r	1G	0r	1B-y	1d
2GG	.	.	.	.
1D	2F	.	1A	2.f
.	2D	.	.	.
.	.	.	.	4g
=116	=116	=116	=116	=116
1D	1F	0r	1A	0a
1AA	[1E	.	1c	.
=117	=117	=117	=117	=117
1C	1E]	0r	2A	1r
.	.	.	2G	.
2BB-y	2r	.	1B-y	1d
2GG	2G	.	.	.
=118	=118	=118	=118	=118
1D	2F	0r	2A	1f
.	2D	.	1d	.
1AA	1A	.	.	2e
.	.	.	2c	2e
=119	=119	=119	=119	=119
1r	1B-y	0r	1.d	1g
1BB-y	2r	.	.	2f
.	[2F	.	4c	2d
.	.	.	4B-y	.
=120	=120	=120	=120	=120
1D	2F]	0r	2A	1f
.	1A	.	2d	.
1C	.	.	2e	2.e
.	[2G	.	2e	.
.	.	.	.	8dL
.	.	.	.	8cJ
=121	=121	=121	=121	=121
1GG	2G]	1B-y	2.g	1d
.	2G	.	.	.
.	.	.	4f	.
2C	2G	1G	2e	1r
2GG	2B-y	.	[2d	.
=122	=122	=122	=122	=122
1E	2B-y	1G	2d]	1r
.	4A	.	2c	.
.	4G	.	.	.
2.D	1F	1A	2d	2r
.	.	.	[2f	2a
4E	.	.	.	.
=123	=123	=123	=123	=123
1F	2r	1A	2f]	2a
.	1F	.	4e	2a
.	.	.	4d	.
2r	.	1A	1c	2.cc
2F	[2c	.	.	.
.	.	.	.	4b-y
=124	=124	=124	=124	=124
2F	4c]	1c	1r	2a
.	4d	.	.	.
2C	2e	.	.	2.g
1D	2d	1A	2r	.
.	.	.	.	4f#i
.	[2D	.	2A	4f#i
.	.	.	.	4e
=125	=125	=125	=125	=125
2GG	2D]	1G	2B-y	2g
2C	2E	.	2c	2e
2BB-y	2D	1B-y	1d	2f
2GG	[2G	.	.	2g
=126	=126	=126	=126	=126
2.D	4G]	[0Al	1d	1a
.	4F	.	.	.
.	1F	.	.	.
4C	.	.	.	.
1D	.	.	1f	2.a
.	2D	.	.	.
.	.	.	.	4b-y
=127	=127	=127	=127	=127
2AA	2E	0A_	2e	2cc
2D	2F	.	2d	2a
1D	2D	.	1f	1dd
.	[2A	.	.	.
=128	=128	=128	=128	=128
0AAl	2A]	0A]	0el	0cc#Xl
.	4G	.	.	.
.	4F	.	.	.
.	1El	.	.	.
==	==	==	==	==
*-	*-	*-	*-	*-
!!!system-decoration: s1,s2,s3,s4,s5
!!!RDF**kern: i = editorial accidental
!!!RDF**kern: l = terminal long
!!!ENC: David Nivarlet
!!!END: 2026/03/09
!!!EED: Benjamin Ory
!!!EEV: 2026/03/27
!!!YEC: Copyright 2026 Benjamin Ory, All Rights Reserved
!!!ONB: Translated from MusicXML on 2026/03/27
